!!!COM: Palestrina, Giovanni Perluigi da
!!!OPR: Missa In minoribus duplicibus
!!!OMD: Sanctus
!!!OTL: First Section
**kern	**kern	**kern	**kern
*Ibass	*Itenor	*Icalto	*Icant
!Bassus	!Tenor	!Altus	!Cantus
*clefF4	*clefGv2	*clefG2	*clefG2
*k[]	*k[]	*k[]	*k[]
*?:X	*?:X	*?:X	*?:X
*M4/2	*M4/2	*M4/2	*M4/2
=1	=1	=1	=1
1C	0r	0r	0r
[1F	.	.	.
=2	=2	=2	=2
2F]	0r	1c	0r
2E	.	.	.
4D	.	[1f	.
4E	.	.	.
4F	.	.	.
4G	.	.	.
=3	=3	=3	=3
4A	0r	2f]	1cc
4B-	.	.	.
4c	.	2e	.
4A	.	.	.
1B-	.	4d	[1ff
.	.	4e	.
.	.	4f	.
.	.	4g	.
=4	=4	=4	=4
2.A	0r	4a	2ff]
.	.	4b-	.
.	.	1cc	2ee
4G	.	.	.
2F	.	.	1dd
2G	.	2b-	.
=5	=5	=5	=5
2A	0r	4a	2cc
.	.	4g	.
2D	.	4f	2a
.	.	4e	.
1G	.	2d	1b-
.	.	2g	.
=6	=6	=6	=6
2F	0r	2a	1cc
2A	.	1cc	.
1G	.	.	1dd
.	.	2b-	.
=7	=7	=7	=7
2A	1c	0a	1cc
2.F	.	.	.
.	[1f	.	2r
4G	.	.	.
4A	.	.	[2cc
4B-	.	.	.
=8	=8	=8	=8
1c	2f]	2g	4cc]
.	.	.	4dd
.	2e	1cc	2ee
2r	1d	.	2ff
2G	.	2b	2gg
=9	=9	=9	=9
2A	2c	1cc	2ee
2F	2A	.	4ff
.	.	.	4ee
1G	1B-	2r	4dd
.	.	.	4cc
.	.	2g	[2dd
=10	=10	=10	=10
2F	1c	2a	4dd]
.	.	.	4cc
2A	.	2f	1cc
1G	1d	2.g	.
.	.	.	2b
.	.	4f	.
=11	=11	=11	=11
1r	1c	4e	[0cc
.	.	4d	.
.	.	2e	.
1F	1r	[1a	.
=12	=12	=12	=12
2.A	1c	1a]	0cc]
4B-	.	.	.
[1c	2.e	1g	.
.	4f	.	.
=13	=13	=13	=13
2c]	1g	0r	0r
2B-	.	.	.
4A	2f	.	.
4B-	.	.	.
4c	2e	.	.
4A	.	.	.
=14	=14	=14	=14
1B-	1d	1f	1r
1F	2c	2.a	1cc
.	[2A	.	.
.	.	4b-	.
=15	=15	=15	=15
0r	4A]	1.cc	2.ee
.	4B-	.	.
.	4c	.	.
.	4d	.	4ff
.	4e	.	1gg
.	4f	.	.
.	2g	2b-	.
=16	=16	=16	=16
1r	2d	4a	2ff
.	.	4f	.
.	2c	1cc	2ee
1G	1g	.	1dd
.	.	2b-	.
=17	=17	=17	=17
1.c	0r	2a	2.cc
.	.	4g	.
.	.	4f	8b-
.	.	.	8a
.	.	2e	2g
2B-	.	[2f	[2dd
=18	=18	=18	=18
1A	0r	4f]	4dd]
.	.	4e	4cc
.	.	2c	1cc
1G	.	2e	.
.	.	[2d	2b
=19	=19	=19	=19
2E	1c	4d]	1cc
.	.	4c	.
2F	.	1c	.
1D	[1f	.	1r
.	.	2B	.
=20	=20	=20	=20
2C	2f]	1c	1cc
1c	2e	.	.
.	1d	1r	[1ff
2B	.	.	.
=21	=21	=21	=21
1c	2c	1r	2ff]
.	2A	.	2ee
2.G	1B-	2r	1dd
.	.	[2g	.
4B-	.	.	.
=22	=22	=22	=22
1A	1c	4g]	2cc
.	.	4f	.
.	.	2f	2a
1G	2.d	2g	2.b-
.	.	[2g	.
.	4c	.	4cc
=23	=23	=23	=23
0r	2B-	2g]	2dd
.	2c	2e	1cc
.	1d	1f	.
.	.	.	2b
=24	=24	=24	=24
2r	1c	0e	0cc
1c	.	.	.
.	1r	.	.
2A	.	.	.
=25	=25	=25	=25
1B-	0r	2d	1r
.	.	1f	.
[1A	.	.	[1cc
.	.	4e	.
.	.	4d	.
=26	=26	=26	=26
1A]	0r	2e	2cc]
.	.	2f	2a
1G	.	4g	1b-
.	.	4f	.
.	.	4e	.
.	.	4d	.
=27	=27	=27	=27
2A	0r	2c	1a
2F	.	1f	.
1c	.	.	1g
.	.	2e	.
=28	=28	=28	=28
2.G	2r	1d	2.b-
.	1g	.	.
4A	.	.	4cc
2B-	.	1r	2dd
2c	2e	.	[2cc
=29	=29	=29	=29
1d	1f	1r	2cc]
.	.	.	2b
[1c	2.e	2r	1cc
.	.	[2g	.
.	4d	.	.
=30	=30	=30	=30
1c]	4e	2g]	2r
.	4d	.	.
.	4c	2e	1cc
.	4B-	.	.
1r	4A	1f	.
.	4G	.	.
.	2F	.	2a
=31	=31	=31	=31
0r	4G	2e	1b-
.	4A	.	.
.	4B-	2d	.
.	4c	.	.
.	4d	2.f	1a
.	4e	.	.
.	[2f	.	.
.	.	4f	.
=32	=32	=32	=32
2r	2f]	1c	1g
1c	4e	.	.
.	4d	.	.
.	2e	2r	1cc
2A	[2a	[2f	.
=33	=33	=33	=33
1B-	2a]	2f]	1dd
.	2g	2d	.
1A	1a	1e	[1cc
=34	=34	=34	=34
1G	1d	2.g	2cc]
.	.	.	2b-
.	.	4f	.
2.C	2r	4e	2a
.	.	4d	.
.	[2c	[2e	4g
4D	.	.	4f
=35	=35	=35	=35
2E	2c]	2e]	2g
2F	2A	4d	2a
.	.	4c	.
4BB-	1B-	1d	2.f
4C	.	.	.
4D	.	.	.
4E	.	.	4g
=36	=36	=36	=36
1F	1A	2c	4a
.	.	.	4g
.	.	1f	4a
.	.	.	4b-
1C	1G	.	1cc
.	.	2e	.
=37	=37	=37	=37
1.G	1B-	4d	1dd
.	.	4c	.
.	.	4B-	.
.	.	4A	.
.	1d	2G	1b-
2B-	.	[2g	.
=38	=38	=38	=38
1A	1.c	2g]	2.cc
.	.	2f	.
.	.	.	4dd
2.G	.	[1g	2ee-
.	2B	.	[2dd
4F	.	.	.
=39	=39	=39	=39
2E	1c	0g_	4dd]
.	.	.	4cc
2C	.	.	1cc
1G	1d	.	.
.	.	.	4b
.	.	.	4a
=40	=40	=40	=40
1G	1d	0g_	2b
.	.	.	2b
[1C	[1c	.	[1cc
=41	=41	=41	=41
1C]	1c]	1g]	1cc]
*-	*-	*-	*-
!!!CDT: 1525/^1526/-1594/2/2
!!!OCY: Italia
!!!AGN: Mass (Paraphrase)
!!!AST: renaissance, vocal
!!!ASW: Gregorian Mass
!!!PWK: Masses, Book 7
!!!RNB: Cadence finals: C,G,A,D
!!!YOR: Le Opere Complete, v. 23, p. 182
!!!YOO: Rome, Italy: Fratelli Scalera
!!!END: 1992//
!!!EED: John Miller
!!!YEC: Copyright 2000, John Miller
!!!YEN: United States of America
!!!YEM: Rights to all derivative electronic formats reserved.
!!!YEM: Refer to licensing agreement for further details.
!!!YEM: This file must be accompanied by the licensing agreement.
!!!YEM: A copy of the licensing agreement may be found at http://www.music-cog.ohio-state.edu/HumdrumDatabases/Palestrina/license.txt
!!!EMD: converted to Humdrum by Bret Aarden
